X: 1
T:Polska fr J\"amtland
R:Polska
O:Sweden
M:3/4
A:J\"amtland
K:DDor
D2 E>F (3FED|^C>D E2 F>A|(3GAG (3FED E>^C\
|1 D>E (3FED E>^C :|2 ^C<D D4::
A2 (3^GAB A>F|D2E2 F>A|(3GAG (3FED E>^C\
|1 D>E (3FED E2 :|2 ^C<D D4 :|
